X:1
T:Title
%%score { 1 | 2 }
L:1/8
M:3/4
K:F
V:1 treble nm="Grand Piano"
V:2 bass 
V:1
 z2 z2[Q:1/4=100] F2 | A3 A BA | [CDA]>[DG] [DG]4 | [EB]2 [Ec]3 [EG] | A4 A2 | A3 A BA | %6
 [CDA]>[B,DG] [B,DG]4 | [DEB]2 [CEA]3 [B,CG] | [A,CF]4 z2 | [B,DF]2 [DFB]3 [DF] | [CFA]4 z2 | %11
 [CEG]2 [=B,FA]3 [DFG] | [CEc]4 [Ec]2 | c3 c BA | [CDA]>[B,DG] [B,DG]4 | [DEB]2 [CEA]3 [B,CG] | %16
[M:2/4] [A,CF]4 |] %17
V:2
 z2 z2 [F,A,C]2 | [F,CF]3 [F,CF] [F,DF][F,CF] | B,,>[B,,B,] [B,,B,]4 | [C,G,]2 [C,G,]3 [C,C] | %4
 [F,CF]4 [F,CF]2 | [F,CF]3 [F,CF] [F,DF][F,CF] | B,,>B,, B,,4 | G,,2 C,3 C, | F,4 z2 | %9
 B,,2 B,,3 B,, | F,4 z2 | C,2 G,,3 =B,, | C,4 [C,B,]2 | [F,A,F]3 [A,CF][K:bass] [G,CE][F,C_E] | %14
 B,,>B,, B,,4 | G,,2 C,3 C, |[M:2/4] F,4 |] %17

